Gawaita/scalable/mimetypes/x-office-addressbook.svg

<?xml version="1.0" encoding="UTF-8"?>
<svg height="128px" viewBox="0 0 128 128" width="128px" xmlns="http://www.w3.org/2000/svg" xmlns:xlink="http://www.w3.org/1999/xlink">
    <linearGradient id="a" gradientUnits="userSpaceOnUse" x1="92" x2="100" y1="83.000015" y2="83.000015">
        <stop offset="0" stop-color="#e8e7e4"/>
        <stop offset="0.511049" stop-color="#ffffff"/>
        <stop offset="1" stop-color="#c2bfba"/>
    </linearGradient>
    <filter id="b" height="100%" width="100%" x="0%" y="0%">
        <feColorMatrix in="SourceGraphic" type="matrix" values="0 0 0 0 1 0 0 0 0 1 0 0 0 0 1 0 0 0 1 0"/>
    </filter>
    <mask id="c">
        <g filter="url(#b)">
            <rect fill-opacity="0.187" height="128" width="128"/>
        </g>
    </mask>
    <clipPath id="d">
        <rect height="152" width="192"/>
    </clipPath>
    <path d="m 100 24 c 4.417969 0 8 3.582031 8 8 v 8 c 0 4.417969 -3.582031 8 -8 8 s -8 -3.582031 -8 -8 v -8 c 0 -4.417969 3.582031 -8 8 -8 z m 0 0" fill="#f9f06b"/>
    <path d="m 100 40 c 4.417969 0 8 3.582031 8 8 v 8 c 0 4.417969 -3.582031 8 -8 8 s -8 -3.582031 -8 -8 v -8 c 0 -4.417969 3.582031 -8 8 -8 z m 0 0" fill="#26a269"/>
    <path d="m 100 56 c 4.417969 0 8 3.582031 8 8 v 8 c 0 4.417969 -3.582031 8 -8 8 s -8 -3.582031 -8 -8 v -8 c 0 -4.417969 3.582031 -8 8 -8 z m 0 0" fill="#8f5aa0"/>
    <path d="m 100 72 c 4.417969 0 8 3.582031 8 8 v 8 c 0 4.417969 -3.582031 8 -8 8 s -8 -3.582031 -8 -8 v -8 c 0 -4.417969 3.582031 -8 8 -8 z m 0 0" fill="#f66151"/>
    <path d="m 20 8 v 112 h 72 c 4.433594 0 8 -3.566406 8 -8 v -96 c 0 -4.433594 -3.566406 -8 -8 -8 z m 0 0" fill="#9d8c68"/>
    <path d="m 22 48 v 70 h 70 c 4.433594 0 8 -3.566406 8 -8 v -54 c 0 -4.433594 -3.566406 -8 -8 -8 z m 0 0" fill="url(#a)"/>
    <path d="m 20 8 v 104 h 72 c 4.433594 0 8 -3.566406 8 -8 v -88 c 0 -4.433594 -3.566406 -8 -8 -8 z m 0 0" fill="#9d8c68"/>
    <path d="m 20 8 v 102 h 72 c 4.433594 0 8 -3.566406 8 -8 v -86 c 0 -4.433594 -3.566406 -8 -8 -8 z m 0 0" fill="#c0b59e"/>
    <g clip-path="url(#d)" mask="url(#c)" transform="matrix(1 0 0 1 -8 -16)">
        <path d="m 30 24 h 2 v 102 h -2 z m 0 0" fill="#ffffff"/>
    </g>
    <path d="m 57.84375 60.089844 c 0 1.859375 0.394531 3.324218 1.179688 4.394531 c 0.800781 1.070313 1.878906 1.609375 3.238281 1.609375 c 1.34375 0 2.414062 -0.539062 3.214843 -1.609375 c 0.800782 -1.085937 1.203126 -2.550781 1.203126 -4.394531 c 0 -1.828125 -0.410157 -3.269532 -1.226563 -4.324219 c -0.796875 -1.074219 -1.878906 -1.609375 -3.238281 -1.609375 c -1.328125 0 -2.390625 0.535156 -3.191406 1.609375 c -0.785157 1.054687 -1.179688 2.496094 -1.179688 4.324219 z m 9.289062 6.816406 c -0.453124 1.074219 -1.1875 1.910156 -2.199218 2.515625 c -0.996094 0.589844 -2.167969 0.882813 -3.511719 0.882813 c -2.597656 0 -4.710937 -0.9375 -6.339844 -2.808594 c -1.617187 -1.886719 -2.425781 -4.339844 -2.425781 -7.359375 s 0.816406 -5.476563 2.449219 -7.363281 c 1.628906 -1.886719 3.734375 -2.832032 6.316406 -2.832032 c 1.34375 0 2.515625 0.304688 3.511719 0.90625 c 1.011718 0.605469 1.746094 1.445313 2.199218 2.515625 v -2.96875 h 4.730469 v 15.699219 c 1.875 -0.289062 3.347657 -1.1875 4.417969 -2.695312 c 1.070312 -1.527344 1.609375 -3.472657 1.609375 -5.84375 c 0 -1.511719 -0.21875 -2.921876 -0.65625 -4.238282 c -0.441406 -1.328125 -1.105469 -2.542968 -1.996094 -3.644531 c -1.433593 -1.84375 -3.230469 -3.261719 -5.390625 -4.257813 c -2.144531 -0.996093 -4.46875 -1.496093 -6.976562 -1.496093 c -1.75 0 -3.425782 0.234375 -5.027344 0.703125 c -1.601562 0.453125 -3.078125 1.125 -4.4375 2.015625 c -2.234375 1.480469 -3.980469 3.398437 -5.234375 5.753906 c -1.238281 2.339844 -1.855469 4.875 -1.855469 7.609375 c 0 2.25 0.398438 4.363281 1.199219 6.339844 c 0.816406 1.964844 1.988281 3.699218 3.511719 5.210937 c 1.507812 1.480469 3.238281 2.605469 5.1875 3.375 c 1.960937 0.785157 4.054687 1.175781 6.273437 1.175781 c 1.902344 0 3.804688 -0.351562 5.707031 -1.0625 c 1.902344 -0.710937 3.527344 -1.667968 4.871094 -2.875 l 2.421875 3.667969 c -1.886719 1.464844 -3.949219 2.582031 -6.183593 3.351563 c -2.21875 0.785156 -4.476563 1.179687 -6.773438 1.179687 c -2.792969 0 -5.425781 -0.5 -7.902344 -1.496093 c -2.476562 -0.980469 -4.679687 -2.417969 -6.613281 -4.304688 s -3.40625 -4.070312 -4.417969 -6.546875 c -1.011718 -2.488281 -1.515625 -5.164063 -1.515625 -8.015625 c 0 -2.75 0.511719 -5.367188 1.539063 -7.859375 s 2.492187 -4.679687 4.394531 -6.570313 c 1.902344 -1.871093 4.113281 -3.320312 6.636719 -4.347656 c 2.535156 -1.027344 5.164062 -1.539062 7.878906 -1.539062 c 3.382812 0 6.457031 0.648437 9.21875 1.945312 c 2.765625 1.285156 5.074219 3.144532 6.933594 5.574219 c 1.132812 1.480469 1.984375 3.085937 2.558594 4.824219 c 0.589843 1.722656 0.882812 3.53125 0.882812 5.433594 c 0 4.09375 -1.230469 7.273437 -3.691406 9.539062 c -2.460938 2.261719 -5.933594 3.394531 -10.417969 3.394531 h -0.882813 z m 0 0" fill="#ffffff"/>
</svg>

<svg width="128" height="128" viewBox="0 0 128 128" fill="none" xmlns="http://www.w3.org/2000/svg">
<g clip-path="url(#clip0_1_2465)">
<path d="M100 24C104.418 24 108 27.582 108 32V40C108 44.418 104.418 48 100 48C95.582 48 92 44.418 92 40V32C92 27.582 95.582 24 100 24Z" fill="url(#paint0_linear_1_2465)"/>
<path d="M100 40C104.418 40 108 43.582 108 48V56C108 60.418 104.418 64 100 64C95.582 64 92 60.418 92 56V48C92 43.582 95.582 40 100 40Z" fill="url(#paint1_linear_1_2465)"/>
<path d="M100 56C104.418 56 108 59.582 108 64V72C108 76.418 104.418 80 100 80C95.582 80 92 76.418 92 72V64C92 59.582 95.582 56 100 56Z" fill="url(#paint2_linear_1_2465)"/>
<path d="M100 72C104.418 72 108 75.582 108 80V88C108 92.418 104.418 96 100 96C95.582 96 92 92.418 92 88V80C92 75.582 95.582 72 100 72Z" fill="url(#paint3_linear_1_2465)"/>
<path d="M20 8V120H92C96.4336 120 100 116.434 100 112V16C100 11.5664 96.4336 8 92 8H20Z" fill="#9D8C68"/>
<path d="M22 48V118H92C96.4336 118 100 114.434 100 110V56C100 51.5664 96.4336 48 92 48H22Z" fill="url(#paint4_linear_1_2465)"/>
<path d="M20 8V112H92C96.4336 112 100 108.434 100 104V16C100 11.5664 96.4336 8 92 8H20Z" fill="#9D8C68"/>
<path d="M20 8V110H92C96.4336 110 100 106.434 100 102V16C100 11.5664 96.4336 8 92 8H20Z" fill="url(#paint5_linear_1_2465)"/>
<mask id="mask0_1_2465" style="mask-type:luminance" maskUnits="userSpaceOnUse" x="0" y="0" width="128" height="128">
<path d="M128 0H0V128H128V0Z" fill="black" fill-opacity="0.187"/>
</mask>
<g mask="url(#mask0_1_2465)">
<mask id="mask1_1_2465" style="mask-type:luminance" maskUnits="userSpaceOnUse" x="-8" y="-16" width="192" height="152">
<path d="M184 -16H-8V136H184V-16Z" fill="white"/>
</mask>
<g mask="url(#mask1_1_2465)">
<path d="M22 8H24V110H22V8Z" fill="white"/>
</g>
</g>
<path d="M57.8438 60.0898C57.8438 61.9492 58.2383 63.4141 59.0234 64.4844C59.8242 65.5547 60.9023 66.0938 62.2617 66.0938C63.6055 66.0938 64.6758 65.5547 65.4766 64.4844C66.2773 63.3984 66.6797 61.9336 66.6797 60.0898C66.6797 58.2617 66.2695 56.8203 65.4531 55.7656C64.6562 54.6914 63.5742 54.1562 62.2148 54.1562C60.8867 54.1562 59.8242 54.6914 59.0234 55.7656C58.2383 56.8203 57.8438 58.2617 57.8438 60.0898ZM67.1328 66.9062C66.6797 67.9805 65.9453 68.8164 64.9336 69.4219C63.9375 70.0117 62.7656 70.3047 61.4219 70.3047C58.8242 70.3047 56.7109 69.3672 55.082 67.4961C53.4648 65.6094 52.6562 63.1562 52.6562 60.1367C52.6562 57.1172 53.4727 54.6602 55.1055 52.7734C56.7344 50.8867 58.8398 49.9414 61.4219 49.9414C62.7656 49.9414 63.9375 50.2461 64.9336 50.8477C65.9453 51.4531 66.6797 52.293 67.1328 53.3633V50.3945H71.8633V66.0938C73.7383 65.8047 75.2109 64.9062 76.2812 63.3984C77.3516 61.8711 77.8906 59.9258 77.8906 57.5547C77.8906 56.043 77.6719 54.6328 77.2344 53.3164C76.793 51.9883 76.1289 50.7734 75.2383 49.6719C73.8047 47.8281 72.0078 46.4102 69.8477 45.4141C67.7031 44.418 65.3789 43.918 62.8711 43.918C61.1211 43.918 59.4453 44.1523 57.8438 44.6211C56.2422 45.0742 54.7656 45.7461 53.4062 46.6367C51.1719 48.1172 49.4258 50.0352 48.1719 52.3906C46.9336 54.7305 46.3164 57.2656 46.3164 60C46.3164 62.25 46.7148 64.3633 47.5156 66.3398C48.332 68.3047 49.5039 70.0391 51.0273 71.5508C52.5352 73.0312 54.2656 74.1562 56.2148 74.9258C58.1758 75.7109 60.2695 76.1016 62.4883 76.1016C64.3906 76.1016 66.293 75.75 68.1953 75.0391C70.0977 74.3281 71.7227 73.3711 73.0664 72.1641L75.4883 75.832C73.6016 77.2969 71.5391 78.4141 69.3047 79.1836C67.0859 79.9688 64.8281 80.3633 62.5312 80.3633C59.7383 80.3633 57.1055 79.8633 54.6289 78.8672C52.1523 77.8867 49.9492 76.4492 48.0156 74.5625C46.082 72.6758 44.6094 70.4922 43.5977 68.0156C42.5859 65.5273 42.082 62.8516 42.082 60C42.082 57.25 42.5937 54.6328 43.6211 52.1406C44.6484 49.6484 46.1133 47.4609 48.0156 45.5703C49.918 43.6992 52.1289 42.25 54.6523 41.2227C57.1875 40.1953 59.8164 39.6836 62.5312 39.6836C65.9141 39.6836 68.9883 40.332 71.75 41.6289C74.5156 42.9141 76.8242 44.7734 78.6836 47.2031C79.8164 48.6836 80.668 50.2891 81.2422 52.0273C81.832 53.75 82.125 55.5586 82.125 57.4609C82.125 61.5547 80.8945 64.7344 78.4336 67C75.9727 69.2617 72.5 70.3945 68.0156 70.3945H67.1328V66.9062Z" fill="white"/>
</g>
<defs>
<linearGradient id="paint0_linear_1_2465" x1="106" y1="36" x2="94.5" y2="39.5" gradientUnits="userSpaceOnUse">
<stop stop-color="#FFAC46"/>
<stop offset="1" stop-color="#B24D00"/>
</linearGradient>
<linearGradient id="paint1_linear_1_2465" x1="105.5" y1="47.5" x2="93.5" y2="58.5" gradientUnits="userSpaceOnUse">
<stop stop-color="#26A269"/>
<stop offset="1" stop-color="#00351C"/>
</linearGradient>
<linearGradient id="paint2_linear_1_2465" x1="107" y1="62.5" x2="98.5" y2="72.5" gradientUnits="userSpaceOnUse">
<stop stop-color="#8F5AA0"/>
<stop offset="1" stop-color="#48005F"/>
</linearGradient>
<linearGradient id="paint3_linear_1_2465" x1="107" y1="78.5" x2="88.5" y2="93" gradientUnits="userSpaceOnUse">
<stop stop-color="#F66151"/>
<stop offset="1" stop-color="#90392F"/>
</linearGradient>
<linearGradient id="paint4_linear_1_2465" x1="92" y1="83" x2="100" y2="83" gradientUnits="userSpaceOnUse">
<stop stop-color="#E8E7E4"/>
<stop offset="0.511049" stop-color="white"/>
<stop offset="1" stop-color="#C2BFBA"/>
</linearGradient>
<linearGradient id="paint5_linear_1_2465" x1="32" y1="14.5" x2="95.5" y2="92.5" gradientUnits="userSpaceOnUse">
<stop offset="0.0384615" stop-color="#DBD0BA"/>
<stop offset="0.254808" stop-color="#C0B59E"/>
<stop offset="0.490385" stop-color="#C0B59E"/>
<stop offset="1" stop-color="#B6A072"/>
</linearGradient>
<clipPath id="clip0_1_2465">
<rect width="128" height="128" fill="white"/>
</clipPath>
</defs>
</svg>
